Newaita-dark/actions/22/exchange-positions.svg

<svg height="22" viewBox="0 0 22 22" width="22" xmlns="http://www.w3.org/2000/svg"><g fill="#e0e0e0"><path d="m13.644531 1.992188c-.503906 0-.910156.40625-.910156.910156v5.457031c0 .503906.40625.910156.910156.910156h5.457031c.503907 0 .910157-.40625.910157-.910156v-5.457031c0-.503906-.40625-.910156-.910157-.910156zm1.363281 1.816406h2.730469c.25 0 .453125.203125.453125.457031v2.726563c0 .253906-.203125.457031-.453125.457031h-2.730469c-.25 0-.453124-.203125-.453124-.457031v-2.726563c0-.253906.203124-.457031.453124-.457031zm0 0"/><path d="m2.730469 12.90625c-.503907 0-.910157.40625-.910157.910156v5.457032c0 .503906.40625.910156.910157.910156h5.457031c.503906 0 .910156-.40625.910156-.910156v-5.457032c0-.503906-.40625-.910156-.910156-.910156zm1.363281 1.820312h2.726562c.253907 0 .457032.203126.457032.453126v2.730468c0 .25-.203125.453125-.457032.453125h-2.726562c-.253906 0-.457031-.203125-.457031-.453125v-2.730468c0-.25.203125-.453126.457031-.453126zm0 0"/><path d="m10.914062 17.03125c2.828126-.886719 5.058594-3.117188 5.945313-5.945312h-1.914063c-.734374 1.839843-2.191406 3.296874-4.03125 4.03125zm0 0"/><path d="m10.914062 5.140625c-2.824218.886719-5.058593 3.121094-5.945312 5.945313h1.914062c.734376-1.839844 2.191407-3.296876 4.03125-4.03125zm0 0"/></g></svg>

<svg xmlns="http://www.w3.org/2000/svg" xmlns:xlink="http://www.w3.org/1999/xlink" width="22px" height="22px" viewBox="0 0 22 22" version="1.1">
<g id="surface1">
     <defs>
  <style id="current-color-scheme" type="text/css">
   .ColorScheme-Text { color:#eeeeee; } .ColorScheme-Highlight { color:#424242; }
  </style>
 </defs>
<path style="fill:currentColor" class="ColorScheme-Text" d="M 13.644531 1.992188 C 13.140625 1.992188 12.734375 2.398438 12.734375 2.902344 L 12.734375 8.359375 C 12.734375 8.863281 13.140625 9.269531 13.644531 9.269531 L 19.101562 9.269531 C 19.605469 9.269531 20.011719 8.863281 20.011719 8.359375 L 20.011719 2.902344 C 20.011719 2.398438 19.605469 1.992188 19.101562 1.992188 Z M 15.007812 3.808594 L 17.738281 3.808594 C 17.988281 3.808594 18.191406 4.011719 18.191406 4.265625 L 18.191406 6.992188 C 18.191406 7.246094 17.988281 7.449219 17.738281 7.449219 L 15.007812 7.449219 C 14.757812 7.449219 14.554688 7.246094 14.554688 6.992188 L 14.554688 4.265625 C 14.554688 4.011719 14.757812 3.808594 15.007812 3.808594 Z M 15.007812 3.808594 "/>
     <defs>
  <style id="current-color-scheme" type="text/css">
   .ColorScheme-Text { color:#eeeeee; } .ColorScheme-Highlight { color:#424242; }
  </style>
 </defs>
<path style="fill:currentColor" class="ColorScheme-Text" d="M 2.730469 12.90625 C 2.226562 12.90625 1.820312 13.3125 1.820312 13.816406 L 1.820312 19.273438 C 1.820312 19.777344 2.226562 20.183594 2.730469 20.183594 L 8.1875 20.183594 C 8.691406 20.183594 9.097656 19.777344 9.097656 19.273438 L 9.097656 13.816406 C 9.097656 13.3125 8.691406 12.90625 8.1875 12.90625 Z M 4.09375 14.726562 L 6.820312 14.726562 C 7.074219 14.726562 7.277344 14.929688 7.277344 15.179688 L 7.277344 17.910156 C 7.277344 18.160156 7.074219 18.363281 6.820312 18.363281 L 4.09375 18.363281 C 3.839844 18.363281 3.636719 18.160156 3.636719 17.910156 L 3.636719 15.179688 C 3.636719 14.929688 3.839844 14.726562 4.09375 14.726562 Z M 4.09375 14.726562 "/>
     <defs>
  <style id="current-color-scheme" type="text/css">
   .ColorScheme-Text { color:#eeeeee; } .ColorScheme-Highlight { color:#424242; }
  </style>
 </defs>
<path style="fill:currentColor" class="ColorScheme-Text" d="M 10.914062 17.03125 C 13.742188 16.144531 15.972656 13.914062 16.859375 11.085938 L 14.945312 11.085938 C 14.210938 12.925781 12.753906 14.382812 10.914062 15.117188 Z M 10.914062 17.03125 "/>
     <defs>
  <style id="current-color-scheme" type="text/css">
   .ColorScheme-Text { color:#eeeeee; } .ColorScheme-Highlight { color:#424242; }
  </style>
 </defs>
<path style="fill:currentColor" class="ColorScheme-Text" d="M 10.914062 5.140625 C 8.089844 6.027344 5.855469 8.261719 4.96875 11.085938 L 6.882812 11.085938 C 7.617188 9.246094 9.074219 7.789062 10.914062 7.054688 Z M 10.914062 5.140625 "/>
</g>
</svg>
